data/teachers.svg

<svg width="54.852" height="16.8" viewBox="0 0 54.852 16.8" xmlns="http://www.w3.org/2000/svg"><path transform="translate(0 13.16) scale(.014 -.014)" d="M225 2V616H20V682H500V616H295V2Z"/><path transform="translate(7.28 13.16) scale(.014 -.014)" d="m281-7q-66 0-120.5 28.5t-87.5 80-33 120.5q0 64 31 116t83 83 116 31q62 0 114-31t84-82 32-113v-28h-416v65h342q-12 50-55.5 84.5t-100.5 34.5q-47 0-82.5-22t-55.5-59.5-20-84.5q0-46 23-80.5t59-53.5 76-19q31 0 57.5 7t49 21 40.5 36l53-44q-22-28-53.5-48.5t-66.5-31-69-10.5z"/><path transform="translate(14.84 13.16) scale(.014 -.014)" d="m259-10q-62 0-110.5 32.5t-76 85-27.5 112.5q0 61 27.5 113t76 84.5 110.5 32.5q54 0 95.5-23.5t70.5-61.5v75h70v-440h-70v75q-19-25-44-44.5t-55.5-30-66.5-10.5zm11 70q45 0 80 22.5t55 59 20 78.5q0 43-20 79t-55 58.5-80 22.5-80-22.5-55-58.5-20-79q0-42 20-78.5t55-59 80-22.5z"/><path transform="translate(22.75 13.16) scale(.014 -.014)" d="m259-10q-40 0-79 17t-70.5 47.5-50.5 72.5-19 93q0 63 30 115t81 83 114 31q49 0 92.5-20t76.5-57.5 47-89.5h-76q-18 43-56 68.5t-77 25.5q-43 0-79.5-19.5t-58.5-54.5-22-82q0-42 20-78t55-57.5 78-21.5q42 0 77.5 22t55.5 59h79q-17-49-50-83.5t-76-52.5-92-18z"/><path transform="translate(30.044 13.16) scale(.014 -.014)" d="m70 0v750h70v-386q21 36 55.5 60.5t83.5 24.5q55 0 91.5-21.5t55-60.5 18.5-92v-275h-70v275q0 26-7.5 50t-26 39-50.5 15q-54 0-87-23t-48-66.5-15-105.5v-184z"/><path transform="translate(37.1 13.16) scale(.014 -.014)" d="m281-7q-66 0-120.5 28.5t-87.5 80-33 120.5q0 64 31 116t83 83 116 31q62 0 114-31t84-82 32-113v-28h-416v65h342q-12 50-55.5 84.5t-100.5 34.5q-47 0-82.5-22t-55.5-59.5-20-84.5q0-46 23-80.5t59-53.5 76-19q31 0 57.5 7t49 21 40.5 36l53-44q-22-28-53.5-48.5t-66.5-31-69-10.5z"/><path transform="translate(44.66 13.16) scale(.014 -.014)" d="m70 0v440h70v-86q13 37 29.5 57.5t37.5 29 45 8.5q11 0 22.5-2t21.5-7v-91q-12 11-25 16.5t-27 5.5q-32 0-55.5-22.5t-36-57-12.5-71.5v-220z"/><path transform="translate(49.224 13.16) scale(.014 -.014)" d="m203-13q-51 0-87.5 15t-58.5 45.5-30 75.5h74q8-29 23-46.5t36-24.5 47-7q48 0 72 18t24 54q0 21-17 37t-52 27q-15 5-37.5 11t-45.5 13-42 15q-31 15-49.5 39t-18.5 58q0 45 22 74.5t57.5 44 76.5 14.5q62 0 105-25.5t58-93.5h-75q-7 23-19 36.5t-29.5 19-41.5 5.5q-30 0-55-13t-25-45 22-45.5 46-21.5q12-3 34.5-8.5t47.5-13 44-16.5q34-16 51-42t17-61q0-49-23.5-79.5t-63-45-87.5-14.5z"/></svg>

<?xml version="1.0" encoding="utf-8" ?>
<svg baseProfile="tiny" height="100%" version="1.2" width="100%" xmlns="http://www.w3.org/2000/svg" xmlns:ev="http://www.w3.org/2001/xml-events" xmlns:xlink="http://www.w3.org/1999/xlink"><defs /><g><path d="M225 2V616H20V682H500V616H295V2Z" transform="translate(0.0, 72) scale(0.072, -0.072)" /><path d="M281 -7Q215 -7 160.5 21.5Q106 50 73.0 101.5Q40 153 40 222Q40 286 71.0 338.0Q102 390 154.0 421.0Q206 452 270 452Q332 452 384.0 421.0Q436 390 468.0 339.0Q500 288 500 226V198H84V263H426Q414 313 370.5 347.5Q327 382 270 382Q223 382 187.5 360.0Q152 338 132.0 300.5Q112 263 112 216Q112 170 135.0 135.5Q158 101 194.0 82.0Q230 63 270 63Q301 63 327.5 70.0Q354 77 376.5 91.0Q399 105 417 127L470 83Q448 55 416.5 34.5Q385 14 350.0 3.5Q315 -7 281 -7Z" transform="translate(37.44, 72) scale(0.072, -0.072)" /><path d="M259 -10Q197 -10 148.5 22.5Q100 55 72.5 107.5Q45 160 45 220Q45 281 72.5 333.0Q100 385 148.5 417.5Q197 450 259 450Q313 450 354.5 426.5Q396 403 425 365V440H495V0H425V75Q406 50 381.0 30.5Q356 11 325.5 0.5Q295 -10 259 -10ZM270 60Q315 60 350.0 82.5Q385 105 405.0 141.5Q425 178 425 220Q425 263 405.0 299.0Q385 335 350.0 357.5Q315 380 270 380Q225 380 190.0 357.5Q155 335 135.0 299.0Q115 263 115 220Q115 178 135.0 141.5Q155 105 190.0 82.5Q225 60 270 60Z" transform="translate(76.32, 72) scale(0.072, -0.072)" /><path d="M259 -10Q219 -10 180.0 7.0Q141 24 109.5 54.5Q78 85 59.0 127.0Q40 169 40 220Q40 283 70.0 335.0Q100 387 151.0 418.0Q202 449 265 449Q314 449 357.5 429.0Q401 409 434.0 371.5Q467 334 481 282H405Q387 325 349.0 350.5Q311 376 272 376Q229 376 192.5 356.5Q156 337 134.0 302.0Q112 267 112 220Q112 178 132.0 142.0Q152 106 187.0 84.5Q222 63 265 63Q307 63 342.5 85.0Q378 107 398 144H477Q460 95 427.0 60.5Q394 26 351.0 8.0Q308 -10 259 -10Z" transform="translate(117.0, 72) scale(0.072, -0.072)" /><path d="M70 0V750H140V364Q161 400 195.5 424.5Q230 449 279 449Q334 449 370.5 427.5Q407 406 425.5 367.0Q444 328 444 275V0H374V275Q374 301 366.5 325.0Q359 349 340.5 364.0Q322 379 290 379Q236 379 203.0 356.0Q170 333 155.0 289.5Q140 246 140 184V0Z" transform="translate(154.512, 72) scale(0.072, -0.072)" /><path d="M281 -7Q215 -7 160.5 21.5Q106 50 73.0 101.5Q40 153 40 222Q40 286 71.0 338.0Q102 390 154.0 421.0Q206 452 270 452Q332 452 384.0 421.0Q436 390 468.0 339.0Q500 288 500 226V198H84V263H426Q414 313 370.5 347.5Q327 382 270 382Q223 382 187.5 360.0Q152 338 132.0 300.5Q112 263 112 216Q112 170 135.0 135.5Q158 101 194.0 82.0Q230 63 270 63Q301 63 327.5 70.0Q354 77 376.5 91.0Q399 105 417 127L470 83Q448 55 416.5 34.5Q385 14 350.0 3.5Q315 -7 281 -7Z" transform="translate(190.8, 72) scale(0.072, -0.072)" /><path d="M70 0V440H140V354Q153 391 169.5 411.5Q186 432 207.0 440.5Q228 449 252 449Q263 449 274.5 447.0Q286 445 296 440V349Q284 360 271.0 365.5Q258 371 244 371Q212 371 188.5 348.5Q165 326 152.5 291.5Q140 257 140 220V0Z" transform="translate(229.68, 72) scale(0.072, -0.072)" /><path d="M203 -13Q152 -13 115.5 2.0Q79 17 57.0 47.5Q35 78 27 123H101Q109 94 124.0 76.5Q139 59 160.0 52.0Q181 45 207 45Q255 45 279.0 63.0Q303 81 303 117Q303 138 286.0 154.0Q269 170 234 181Q219 186 196.5 192.0Q174 198 151.0 205.0Q128 212 109 220Q78 235 59.5 259.0Q41 283 41 317Q41 362 63.0 391.5Q85 421 120.5 435.5Q156 450 197 450Q259 450 302.0 424.5Q345 399 360 331H285Q278 354 266.0 367.5Q254 381 236.5 386.5Q219 392 195 392Q165 392 140.0 379.0Q115 366 115 334Q115 302 137.0 288.5Q159 275 183 267Q195 264 217.5 258.5Q240 253 265.0 245.5Q290 238 309 229Q343 213 360.0 187.0Q377 161 377 126Q377 77 353.5 46.5Q330 16 290.5 1.5Q251 -13 203 -13Z" transform="translate(253.15200000000002, 72) scale(0.072, -0.072)" /></g></svg>
